!!!SOCIAL_FUNCTION:	songs used in treatment of the sick
!!!PDT:	1918

Specific Region: Dakotas, Minnesota, Montana, Nebraska
!!!REG: Dakotas and Montana
!!!LING_GROUP: Siouan
!!!LANG: Tone
!!!OTL@ENG: These Are Good
!!!ONM: No. 84
**kern
*Imale
*clefF4
*k[b-]
*M2/4
*MM80
8d
=1
4d
8e
8d
=2
8.d
16c#
8d
16d
16A
=3
8.d
16c#
16d
8.A
=4
4.A
8A
=5
4d
8e
8d
=6
8.d
16c#
8d
16d
16A
=7
8.d
16c#
16d
8.A
=8
4A
8G#
16A
16G#
=9
8.A
16G#
16A
8.F
=10
4F
8D
8D
=11
4.D
16E
16D
=12
4.F
8D
=13
4.D
16D
16C
=14
4D
8E
16D
16C
=15||
*M3/4
4.D
8d
8d
16A
16A
=16||
*M2/4
8.A
16A
(16A
8.G#)
=17
(8.A
16G#)
8A
16A
16F
=18
(8.A
16G#)
16A
8.F
=19
4F
8D
8D
=20
4.D
16E
16D
=21
4.F
8D
=22
4.D
16D
16C
=23
4D
8E
16D
16C
=24
2D
==
*-
!!!CNT: Native American -- Sioux
!!!MRD: 1911/07//-1914///
!!!OCL: Frances Densmore
!!!YOR1: Teton Sioux Music, Bulletin 61,
!!!YOR2: Bureau of American Ethnology, Smithsonian Institution
!!!PPR: Government Printing Office
!!!PPP: Washington, D.C.
!!!PDT: 1918///
!!!ENC: Craig Stuart Sapp
!!!END: 2002/03/25/
!!!EEV: 2002/03/31/
!!!AGN: Song of Personal Dreams/Song Used in Treatment of the Sick
!!!MPN@@SIO: Wangbli'-waha'chungka
!!!MPN@ENG: Eagle Shield
!!!TXO: Teton Sioux
!!!MLC: Standing Rock Reservation, South Dakota, United States of America
!!!ARL: 45.9/-100.7#
!!!catalog: Catalogue No. 513
!!!PPG: 259
!!!EFL: 84/245
!!!VTS: 334264277
